assets/icons/icon_cleaning.svg

<svg width="30" height="30" viewBox="0 0 30 30" fill="none" xmlns="http://www.w3.org/2000/svg">
<path d="M15.8759 7.44653L19.6646 15.4312L19.6682 15.4389L19.6721 15.4466L19.7355 15.5737L19.7387 15.5802L19.7419 15.5865C20.0625 16.2035 20.2289 16.8896 20.2268 17.5858V17.5873C20.2252 18.7482 19.7657 19.8607 18.9497 20.6816C18.1343 21.502 17.0293 21.9645 15.8763 21.9695C14.7214 21.9667 13.6139 21.5052 12.7963 20.6846C11.9784 19.8638 11.5173 18.7507 11.5146 17.5886C11.5164 16.8918 11.6865 16.2061 12.0103 15.5902L12.0315 15.5499L12.0483 15.5077L12.0886 15.4066L15.8759 7.44653Z" stroke="white" stroke-width="1.70455"/>
<path fill-rule="evenodd" clip-rule="evenodd" d="M15.5117 13.3355C15.9499 13.1369 16.4663 13.3311 16.6649 13.7693L17.8639 16.4141C17.8796 16.4488 17.893 16.4844 17.9041 16.5208L17.9134 16.5514C18.0055 16.8449 18.05 17.1588 18.0495 17.4692C18.0489 17.9759 17.9293 18.5043 17.6684 18.9358C17.4194 19.3476 16.8838 19.4795 16.472 19.2306C16.0603 18.9816 15.9284 18.446 16.1773 18.0343C16.2428 17.9259 16.3069 17.7233 16.307 17.4673V17.4663C16.3073 17.3245 16.287 17.1921 16.2537 17.0823L15.0779 14.4887C14.8793 14.0505 15.0735 13.5341 15.5117 13.3355Z" fill="white"/>
<path d="M22.2488 23.3539L26.8491 22.8428C27.0486 22.8206 27.2172 22.9892 27.195 23.1888L26.6838 27.789C26.6548 28.05 26.3367 28.1616 26.151 27.9759L22.0619 23.8868C21.8761 23.701 21.9877 23.3829 22.2488 23.3539Z" fill="white"/>
<path d="M26.4608 25.3542C23.7719 28.1038 20.0208 29.8104 15.8712 29.8104C7.69147 29.8104 1.06055 23.1795 1.06055 14.9998C1.06055 6.82013 7.69147 0.189209 15.8712 0.189209C20.4729 0.189209 24.5845 2.28789 27.3009 5.58032C27.6383 5.98922 27.4973 6.59506 27.0306 6.84638C26.6467 7.05311 26.1716 6.94485 25.8916 6.61066C23.4943 3.75036 19.8952 1.93163 15.8712 1.93163C8.65377 1.93163 2.80297 7.78246 2.80297 14.9998C2.80297 22.2172 8.65377 28.068 15.8712 28.068C19.4758 28.068 22.7395 26.6085 25.1038 24.2483C25.2332 24.5322 25.3519 24.7931 25.4545 25.0188L26.4608 25.3542Z" fill="white"/>
</svg>

<svg xmlns="http://www.w3.org/2000/svg" width="30" height="30" fill="none" viewBox="0 0 30 30"><path stroke="#fff" stroke-width="1.705" d="m15.876 7.447 3.789 7.984.003.008.004.008.063.127.004.006.003.006c.32.617.487 1.304.485 2v.001a4.4 4.4 0 0 1-1.277 3.095 4.36 4.36 0 0 1-3.074 1.288 4.36 4.36 0 0 1-3.08-1.285 4.4 4.4 0 0 1-1.281-3.096 4.3 4.3 0 0 1 .495-1.999l.021-.04.017-.042.04-.101z"/><path fill="#fff" fill-rule="evenodd" d="M15.512 13.336a.87.87 0 0 1 1.153.433l1.199 2.645q.024.052.04.107l.01.03c.091.294.136.608.135.918 0 .507-.12 1.035-.38 1.467a.871.871 0 0 1-1.492-.902c.066-.108.13-.31.13-.567 0-.142-.02-.275-.053-.385l-1.176-2.593a.87.87 0 0 1 .434-1.154" clip-rule="evenodd"/><path fill="#fff" d="m22.249 23.354 4.6-.511c.2-.022.368.146.346.346l-.511 4.6a.313.313 0 0 1-.533.187l-4.09-4.09a.313.313 0 0 1 .188-.532"/><path fill="#fff" d="M26.46 25.354a14.77 14.77 0 0 1-10.589 4.456c-8.18 0-14.81-6.63-14.81-14.81S7.69.19 15.87.19a14.78 14.78 0 0 1 11.43 5.39c.337.41.196 1.015-.27 1.266a.92.92 0 0 1-1.14-.235 13.04 13.04 0 0 0-10.02-4.68C8.654 1.932 2.803 7.783 2.803 15c0 7.217 5.85 13.068 13.068 13.068 3.605 0 6.868-1.46 9.233-3.82l.35.77z"/></svg>
